X:1
T:Légende
T:Légende
T:Op. 111
T:Charles Neustedt
C:Charles Neustedt
%%score { ( 1 4 ) | ( 2 3 ) }
L:1/8
Q:1/4=92
M:2/4
K:Bb
V:1 treble nm="Piano"
V:4 treble 
V:2 bass 
V:3 bass 
V:1
"^Andante"!<(! (GABc | dg!<)!!>(!dc | BAGA)!>)! | (^F2 D2) | (G[EA][DB][_A=B] | [Gc]d[_Af][Ge] | %6
 [Bd][=Ac][DB][CA] | [B,G]2)!>(! ([CE]G | [B,D]2)!>)!!>(! ([CE]G | [B,D]2)!>)!!>(! ([CE]=F || %10
"^simplice" [B,G]2)!>)! G2 | (AB{/d}cA) |!>(! G2 ^F2!>)! | (G2 D) z | (B2 cd) | (d2 A2) | (G2 AB | %17
 A^F D2) | !tenuto!.G2 !tenuto!.G2 | (AB{/d}c"^rit."A) |!p! (G2 ^F2 | G2) z2 | %22
!ff!"^a tempo" !tenuto!.[G_Bdg]2 !tenuto!.[GBdg]2 | ([Aega][Bb]{/d'}[cc'][Aa]) | %24
 ([GBdg]2 [^Fcd^f]2 |!>(! [GBdg]2 [DGBd])!>)! z | ([Bdgb]2 [cc'][dd'] | [dad']2 [Ada]) z | %28
 ([G^cg]2 [Aa][Bb] | [Aa][^F^f] [Dd]2) |!ff! !tenuto!.[GBdg]2 !tenuto!.[GBdg]2 | %31
 ([Aega][Bb]{/d'}[cc'][Aa] |"^rit." [GBdg]2 [Acd^f]2 | [GBdg]2) !fermata!z2 ||!p!"^a tempo" B2 B2 | %35
 A2 A2 | (GABc) | (F4 | G2 AG) | (^F2 GB | AGF=E |!<(! F^FGA)!<)! |!p! B2 B2 | A2 A2 | (GABc) | %45
 (F4 | G2 AG) | ^F2 GB | G2 ^F2 | G2 z2 ||!ff!"^marcato" !tenuto!.[GBdg]2 !tenuto!.[GBdg]2 | %51
 .[Aega].[Bb]{/d'}.[cc'].[Aa] | [GBdg]2 [Acd^f]2 |!>(! ([GBdg]2 [DGBd])!>)! z | %54
 !tenuto!.[Bdgb]2 .[cc'].[dd'] |!>(! ([dad']2 [Ada])!>)! z | !tenuto!.[G^cg]2 .[Aa].[Bb] | %57
 ([Aa][^F^f] [Dd]2) | !tenuto!.[GBdg]2 !tenuto!.[GBdg]2 | ([Aega][Bb]{/d'}[cc'][Aa]) | %60
!ff! [Adg]2 [Acd^f]2 | [GBdg]2 z2 ||!p!"^leggiero" .d/.c/.B/.A/ .B/.c/.d/.e/ | %63
 .f/.g/.=e/.g/ .f/.f/.g/.a/ | .b/.a/.g/.f/ .=e/.d/.c/.B/ | .A/.c/.B/.G/ F2 | %66
"_cresc." .G/.B/.A/.G/ .F/.G/.A/.B/ | .c/.d/.e/.f/ .e/.d/.c/.B/ | .A/.G/.^F/.G/ .c/.B/.A/.G/ | %69
 .G/.=F/.=E/.F/ .G/.A/.B/.c/ |!mf! .d/.c/.B/.A/ .B/.c/.d/._e/ | .f/.g/.=e/.g/ .f/.f/.g/.a/ | %72
 .b/.a/.g/.^f/ .g/.a/.b/.c'/ | .d'/.c'/.b/.a/ .g/.f/.e/.d/ | .c/.=B/.c/.g/ .^c/.^B/.c/.g/ | %75
 .d/.f/._b/.a/ .=c'/.b/.f/.d/ | .c/.d/.e/.f/ .a/.g/.e/.c/ | .A/.B/.d/.f/ b z | %78
!f!"^marcato" !^![B,EG]2 !^![DFB](c/d/) | !^![Gce]2 !^![Bdg]2 |!>(! .[EAc].[DGB].[CEA].[B,=EG] | %81
"^eleganza" .[A,D^F]!>)!!p!.[DF]/.[=EG]/ .[FA].[G=B] | .[=EG].[^CE]/.[D^F]/ .[EG]!>(!.[CA] | %83
 .[D^F]!>)!.[d^f]/.[^c=e]/ .[=Bd]/.[Ac]/.[GB]/.[FA]/ | %84
 .[=EG].[^c=e]/.[=Bd]/ .[Ac]/.[GB]/.[^FA]/.[EG]/ | .[D^F].[DF]/.[=EG]/ .[FA]!>(!!^![D=B] | %86
 .[=EG]!>)!.[^CE]/.[D^F]/ .[EG]!>(![CA] | .[D^F]!>)!!f!.[DAd].[DG=B].[GBg] |!>(! (^f2 =e2) | %89
 [^Fd]!>)!!p!(d/^c/ d/c/!>(!d/c/ | d)!>)!(D/^C/ D/C/D/C/ | D)(^C/D/) (d/=c/A/^F/) | %92
!<(! D/(D/^C/D/ E/=E/F/^F/)!<)! |!p!"^a tempo" !tenuto!.G2 !tenuto!.G2 | (AB{/d}cA) | (G2 ^F2) | %96
!>(! (G2 D)!>)! z |!<(! (B2 cd | d2 A2!<)! |!>(! G2 AB | A^F D2)!>)! | G2 G2 | (AB"^rit."{/d}cA | %103
!>(! G2 ^F2 | G2)!>)!!p! z2 |!ff!"^a tempo" !tenuto!.[G_Bdg]2 !tenuto!.[GBdg]2 | %106
 .[Aega].[Bb]{/d'}.[cc'].[Aa] | ([GBdg]2 [Acd^f]2 |!>(! [GBdg]2 [DGBd])!>)! z | %109
 !tenuto!.[Bdgb]2 .[cc'].[dd'] |!>(! ([dad']2 [Ada])!>)! z | !tenuto!.[G^cg]2 .[Aa].[Bb] | %112
 .[Aa].[^F^f] .[Dd]2 | !tenuto!.[GBdg]2 !tenuto!.[GBdg]2 | ([Aega][Bb]{/d'}[cc'][Aa] | %115
!ff! [Adg]2 [Acd^f]2 | [GBdg]2) z2 |!p!!<(! (GABc | dg!<)!!>(!dc | BAGA)!>)! | (^F2 D2) | %121
!<(! (G[EA][DB][_A=B] | [Gc]d[_Af][Ge]!<)! |!p! [Bd][=Ac][DB][CA] | [B,G]2) ([CE]G | %125
 [B,D]2) ([CE]G | [B,DB]2) z2 |!pp! [B,DB]2 [B,DB]2 | [B,DG]2 !fermata!z2 |] %129
V:2
 (B,DGA | B2 BA | GDB,C | D2) z (C | B,^F,G,=F, | E,D,=B,,C,) | D,2 (D,,D,) | %7
!ped! G,,2 [C,,C,]2!ped-up! |!ped! G,,2 [C,,C,]2!ped-up! | G,,2 [C,,C,]2 || %10
!ped! G,,2 [G,B,]2!ped-up! |!ped! C,2 [CE]2!ped-up! | ([D,B,D]2 [D,A,C]2 | %13
!ped! [G,B,]2- [G,B,]) z!ped-up! |!ped! G,,2 [G,B,D]2!ped-up! |!ped! F,,2 [F,A,D]2!ped-up! | %16
!ped! E,,2 [E,G,^C]2!ped-up! |!ped! E,,2 [D,^F,]2!ped-up! |!ped! G,,2 [G,B,]2!ped-up! | %19
!ped! C,2 [CE]2!ped-up! | ([D,=B,D]2 [D,A,C]2 | [G,=B,]2) z2 | %22
"^marcato"!ped! [G,,G,]2 [D,G,B,D]2!ped-up! |!ped! [C,,C,]2 [G,A,CE]2!ped-up! | %24
!ped! [D,,D,]2 [D,A,C]2!ped-up! |!ped! [G,,G,]2 [D,G,B,]2!ped-up! | %26
!ped! [G,,G,]2 [G,B,DG]2!ped-up! |!ped! [F,,F,]2 [F,A,DF]2!ped-up! | %28
!ped! [E,,E,]2 [E,G,^C]2!ped-up! |!ped! [D,,D,]2 [D,^F,A,]2!ped-up! | %30
 .[G,,G,].[B,,B,].[A,,A,].[G,,G,] |!ped! [C,,C,]2 [A,CE]2!ped-up! | [D,D][^C,^C][D,D][D,,D,] | %33
 [G,,,G,,]2 !fermata![G,B,D]2 ||!ped! B,,2 [F,B,]2!ped-up! |!ped! D,,2 [D,A,]2!ped-up! | %36
!ped! E,,2 [G,B,E]2!ped-up! |!ped! B,,2 [F,B,]2!ped-up! | [E,,E,]2 [C,,C,]2 | %39
 ([D,,D,][C,,C,][B,,,B,,][A,,,A,,]) | [A,,,A,,]2 [A,,A,]2 | [D,,D,]2 ([C,,C,]F,,) | %42
!ped! [B,,,B,,]2 [F,B,]2!ped-up! |!ped! D,,2 [D,A,]2!ped-up! |!ped! E,,2 [G,B,E]2!ped-up! | %45
 B,,2 [F,B,]2 | [E,,E,]2 [C,,C,]2 | .[D,,D,].[C,,C,].[B,,,B,,].[C,,C,] | ([D,,D,]^C,D,D,,) | %49
!ped! (G,,2 G,,,2)!ped-up! || .[G,,G,].[A,,A,].[B,,B,].[G,,G,] | .[C,,C,].[D,,D,].[E,,E,].[C,,C,] | %52
 .[D,,D,].[^C,,^C,].[D,,D,].[D,,,D,,] | .[G,,,G,,].[B,,,B,,].[D,,D,].[G,,G,] | %54
 .[G,,G,].[A,,A,].[B,,B,].[G,,G,] | .[F,,F,].[A,,A,].[G,,G,].[F,,F,] | %56
 .[E,,E,].[B,,B,].[A,,A,].[G,,G,] | .[D,,D,].[A,,A,].[^F,,^F,].[D,,D,] | %58
 .[G,,G,].[A,,A,].[B,,B,].[G,,G,] | .[C,,C,].[D,,D,].[E,,E,].[C,,C,] | %60
 .[D,,D,].[^C,,^C,].[D,,D,].[D,,,D,,] | [G,,,G,,]2 [G,B,D]2 ||!ped! !^![B,DF]2 B,,2!ped-up! | %63
!ped! !^![A,CF]2 A,,2!ped-up! |!ped! !^![G,B,=E]2 C,2!ped-up! |!ped! !^![F,A,C]2 F,,2!ped-up! | %66
 ._E.E,.D.D, | .A,.A,,.B,.B,, | (E,2 =E,2 | F,2) z2 |!ped! !^![B,DF] B,,2 .[B,DF]!ped-up! | %71
!ped! !^![A,CF] A,,2 .[A,CF]!ped-up! |!ped! !^![G,B,_E] G,,2 .[G,B,E]!ped-up! | %73
!ped! !^![F,B,D] F,,2 .[F,B,D]!ped-up! | .E,.[G,A,C].=E,.[G,B,^C] | .F,.[B,D] z2 | %76
!ped! F,,2 [F,A,E]2!ped-up! |!ped! B,,2 [F,B,D]2!ped-up! | .E,/.G,/.F,/.E,/ .D,/.F,/.E,/.D,/ | %79
 .C,/.E,/.D,/.C,/ .B,,/.D,/.C,/.B,,/ | .[^F,,^F,].[G,,G,].C,.^C, | .D,.D,,.D,.D,, | %82
 .D,.D,,.D,.D,, | .D,"^stacc.".D,,.D,.D,, | .D,.D,,.D,.D,, | %85
 .D,.D,, z!ped! !^![=B,,,=B,,]!ped-up! | .=E,,.=E, z!ped! !^!A,,!ped-up! | %87
 D,[^F,,^F,][G,,G,][=E,,=E,] |!ped! [A,,A,]2 [A,,,A,,]2!ped-up! | [D,,D,]2[K:treble] z ([^G=B] | %90
 [Ac]) z[K:bass] z ([^G,=B,] | [A,C]2) z2 | z4 |!ped! G,,2 [G,B,]2!ped-up! | %94
!ped! C,2 [CE]2!ped-up! | ([D,B,D]2 [D,A,C]2 |!ped! [G,B,]2- [G,B,]) z!ped-up! | %97
!ped! G,,2 [G,B,D]2!ped-up! |!ped! F,,2 [F,A,D]2!ped-up! |!ped! E,,2 [E,G,^C]2!ped-up! | %100
!ped! E,,2 [D,^F,]2!ped-up! |!ped! G,,2 [G,B,]2!ped-up! |!ped! C,2 [CE]2!ped-up! | %103
 ([D,=B,D]2 [D,A,C]2 | [G,=B,]2) z2 | .[G,,G,].[A,,A,].[B,,B,].[G,,G,] | %106
 .[C,,C,].[D,,D,].[E,,E,].[C,,C,] | .[D,,D,].[^C,,^C,].[D,,D,].[D,,,D,,] | %108
 .[G,,,G,,].[B,,,B,,].[D,,D,].[G,,G,] | .[G,,G,].[A,,A,].[B,,B,].[G,,G,] | %110
 .[F,,F,].[A,,A,].[G,,G,].[F,,F,] | .[E,,E,].[B,,B,].[A,,A,].[G,,G,] | %112
 .[D,,D,].[A,,A,].[^F,,^F,].[D,,D,] | .[G,,G,].[A,,A,].[B,,B,].[G,,G,] | %114
 .[C,,C,].[D,,D,].[E,,E,].[C,,C,] | .[D,,D,].[^C,,^C,].[D,,D,].[D,,,D,,] | [G,,,G,,]2 [G,B,D]2 | %117
 (B,DGA | B2 BA | GDB,C | D2) z (C | B,^F,G,=F, | E,D,=B,,C,) | D,2 (D,,D, | G,,2) [C,,C,]2 | %125
 G,,2 [C,,C,]2 | [G,,D,G,]2 z2 |!ped! !arpeggio!x2 !arpeggio!x2 | !arpeggio!x2 z2!ped-up! |] %129
V:3
 x4 | x4 | x4 | x4 | x4 | x4 | x4 | x x x x | x x x x | x4 || x2 x x | x2 x x | x4 | x4 | x2 x x | %15
 x2 x x | x2 x x | x2 x x | x2 x x | x2 x x | x4 | x4 | x2 x x | x2 x x | x2 x x | x2 x x | %26
 x2 x x | x2 x x | x2 x x | x2 x x | x4 | x2 x x | x4 | x4 || x2 x x | x2 x x | x2 x x | x2 x x | %38
 x4 | x4 | x4 | x4 | x2 x x | x2 x x | x2 x x | x4 | x4 | x4 | x4 | x x x x || x4 | x4 | x4 | x4 | %54
 x4 | x4 | x4 | x4 | x4 | x4 | x4 | x4 || x2 x x/ x/ | x2 x x/ x/ | x2 x x/ x/ | x2 x x/ x/ | x4 | %67
 x4 | x4 | x4 | x x2 x/ x/ | x x2 x/ x/ | x x2 x/ x/ | x x2 x/ x/ | x4 | x4 | x2 x x/ x/ | %77
 x2 x x/ x/ | x4 | x4 | x4 | x4 | x4 | x4 | x4 | x4 | x4 | x4 | x4 | x2[K:treble] x2 | %90
 x2[K:bass] x2 | x4 | x4 | x2 x x | x2 x x | x4 | x4 | x2 x x | x2 x x | x2 x x | x2 x x | x2 x x | %102
 x2 x x | x4 | x4 | x4 | x4 | x4 | x4 | x4 | x4 | x4 | x4 | x4 | x4 | x4 | x4 | x4 | x4 | x4 | x4 | %121
 x4 | x4 | x4 | x4 | x4 | x4 | [G,,D,G,]2 [G,,D,G,]2 | [G,,D,G,]2 x2 |] %129
V:4
 x4 | x4 | x4 | x4 | x4 | x4 | x4 | x4 | x4 | x4 || x4 | x4 | x4 | x4 | x4 | x4 | x4 | x4 | x4 | %19
 x4 | x4 | x4 | x4 | x4 | x4 | x4 | x4 | x4 | x4 | x4 | x4 | x4 | x4 | x4 || z2 [DF]2 | z2 [DF]2 | %36
 x4 | z2 D2 | [B,E]2 [CE]2 | [A,D]2 DD | =F=ED^C | D2 _E2 | D2 [DF]2 | z2 [DF]2 | x4 | z2 D2 | %46
 [B,E]2 [CE]2 | [A,D]2 [B,D][CE] | [A,D]4 | [B,D]2 z2 || x4 | x4 | x4 | x4 | x4 | x4 | x4 | x4 | %58
 x4 | x4 | x4 | x4 || x4 | x4 | x4 | x4 | x4 | x4 | x4 | x4 | x4 | x4 | x4 | x4 | x4 | x4 | x4 | %77
 x4 | x4 | x4 | x4 | x4 | x4 | x4 | x4 | x4 | x4 | x4 | [G^c]4 | x4 | x4 | x4 | x4 | x4 | x4 | x4 | %96
 x4 | x4 | x4 | x4 | x4 | x4 | x4 | x4 | x4 | x4 | x4 | x4 | x4 | x4 | x4 | x4 | x4 | x4 | x4 | %115
 x4 | x4 | x4 | x4 | x4 | x4 | x4 | x4 | x4 | x4 | x4 | x4 | x4 | x4 |] %129

